X:1
T: Tillie's a Treasure
I:
C: W-35
C: Leslie Fuller 1996
Z:
R: Waltz
M: 3/4
K: A
"A"E4 FE| A6| "E7"E4 FE| B6| "A"E4 FE| c6| "D"d3c B2| "E7"A2 G2 F2|
"A"E4 FE| A6| "E7"E4 FE| B6| "A"c2 B2 A2| "E7"B2 F2 G2| "A"A6-| A6 :|
|:\
cd| "A"e6| "E7"d6| "A"c6| "E7"B6| "A"A4 A2| A2 B2 c2| "E7"c2 B2 A2| B4 cd|
    "A"e6| "E7"d6| "A"c6| "E7"B6| "A"A4 A2| "E7"A2 B2 G2| "A"A6-| A4 :|
%
